X:1
T:Where They Never Grow Old
T:Where They Never Grow Old
T:Frank Monford Graham
T:H. M. Smith, 1914
T:Public Domain Courtesy of the Cyber Hymnal™
T:Public Domain Courtesy of the Cyber Hymnal™
C:Frank Monford Graham
Z:Public Domain
Z:Courtesy of the Cyber Hymnal™
%%score ( 1 2 ) 3
L:1/8
Q:1/4=80
M:6/8
K:Eb
V:1 treble 
V:2 treble 
V:3 bass 
V:1
 [EG]/[FA]/ | [GB]>[GB][GB] [EG][FA][GB] | [Ac] [GB]3 [GB][GB] | [GB]>[FA][EG] [DF][EG][FA] | %4
w: 1.~Ma- ny|friends have passed o- ver the|riv- er, And are|safe in the hea- ven- ly|
w: 2.~We have|seen them de- part from our|pre- sence, While their|forms were be- fore us so|
w: 3.~Now the|fa- ther and mo- ther are|wait- ing In the|beau- ti- ful ci- ty of|
w: 4.~And the|sweet lit- tle rose- bud that|left us For a|home in the beau- ti- ful|
 [EG]3- [EG]2 [EG]/[FA]/ | [GB]>[GB][GB] [EG][FA][GB] | [B_d] [Ac]3 [Ac][Ac] | %7
w: fold; * They have|passed from this life with its|sha- dows To the|
w: cold; * But we|hope in the fu- ture to|find them In the|
w: gold * For the|ga- ther- ing there of the|child- ren To the|
w: fold, * It is|call- ing the fa- ther and|mo- ther To the|
 [GB]>[FA][EG] [DF][EG][DF] | E3- E2 x ||"^Refrain" [GB]/[GB]/ x4 | [Ac]>[Ac][Ac] ([ce]>[Bd])[Ac] | %11
w: land where they ne- ver grow|old. *|||
w: land where they ne- ver grow|old. *|Where they|ne- ver grow old, * No,|
w: land where they ne- ver grow|old. *|||
w: land where they ne- ver grow|old. *|||
 [Ac][GB]>[^F=A] [GB]2 [GB]/[GB]/ | [GB]>[GB][GB] [AB][AB][AB] | [GB]3- [GB]2 [GB]/[GB]/ | %14
w: |||
w: ne- ver grow old, To the|land where they nev- er grow|old; * They are|
w: |||
w: |||
 [Ac]>[Ac][Ac] [ce]>[Bd][Ac] | [Ac] [GB]3 [GB][GB] | [GB]>[GB][GB] [AB][GB]>[FA] | %17
w: |||
w: safe in those man- sions e-|ter- nal, In the|land where they nev- er grow|
w: |||
w: |||
 [EG]3- [EG]2 x |] x5 |] %19
w: ||
w: old. *||
w: ||
w: ||
V:2
 x | x6 | x6 | x6 | x6 | x6 | x6 | x6 | E3- E2 x || x5 | x6 | x6 | x6 | x6 | x6 | x6 | x6 | x6 |] %18
 x5 |] %19
V:3
 z | [E,G,B,]2 z [E,G,B,]2 z | [E,G,B,]2 z [E,G,B,]2 z | [B,,B,]2 z [B,,B,]2 z | %4
 [E,G,B,]3- [E,G,B,]2 z | [E,G,B,]2 z x3 | [E,G,B,]2 z x3 | (G, [A,,A,]3) z2 | %8
 [B,,B,]2 z [B,,B,]2 z || [E,G,B,]3- [E,G,B,]2 | z x5 | [A,,A,]2 z [A,,A,]2 z | %12
 [E,G,B,]2 z [E,G,B,]2 z | [B,,B,]2 z [B,,B,]2 z | [E,G,B,]3- [E,G,B,]2 z | [A,,B,]2 z [A,,B,]2 z | %16
 [E,G,B,]2 z [E,G,B,]2 z | [B,,B,]2 z [B,,B,]2 z |] [E,G,B,]3- [E,G,B,]2 |] %19

